flaticon/wild-west/boot-1.svg

<svg xmlns="http://www.w3.org/2000/svg" width="32" height="32" viewBox="0 0 24 24">
    <path d="M22.277344 19.46875L22.277344 18.949219C22.277344 18.714844 22.085938 18.527344 21.855469 18.527344 21.621094 18.527344 21.433594 18.714844 21.433594 18.949219L21.433594 19.367188 16.355469 19.367188C15.210938 19.367188 14.136719 19.871094 13.402344 20.75 13.074219 21.144531 11.808594 21.894531 9.375 21.894531 8.886719 21.894531 8.4375 21.835938 8.035156 21.714844 7.8125 21.652344 7.578125 21.777344 7.511719 22 7.445312 22.226562 7.574219 22.457031 7.796875 22.523438 8.277344 22.664062 8.808594 22.738281 9.375 22.738281 11.9375 22.738281 13.492188 21.957031 14.050781 21.289062 14.621094 20.605469 15.460938 20.210938 16.355469 20.210938L21.53125 20.210938C21.941406 20.210938 22.277344 19.878906 22.277344 19.46875zM18.488281 2.527344C18.488281 2.757812 18.296875 2.945312 18.066406 2.945312 17.832031 2.945312 17.644531 2.757812 17.644531 2.527344 17.644531 2.292969 17.832031 2.105469 18.066406 2.105469 18.296875 2.105469 18.488281 2.292969 18.488281 2.527344zM18.488281 4.210938C18.488281 4.441406 18.296875 4.632812 18.066406 4.632812 17.832031 4.632812 17.644531 4.441406 17.644531 4.210938 17.644531 3.976562 17.832031 3.789062 18.066406 3.789062 18.296875 3.789062 18.488281 3.976562 18.488281 4.210938zM18.488281 5.894531C18.488281 6.125 18.296875 6.316406 18.066406 6.316406 17.832031 6.316406 17.644531 6.125 17.644531 5.894531 17.644531 5.660156 17.832031 5.472656 18.066406 5.472656 18.296875 5.472656 18.488281 5.660156 18.488281 5.894531zM18.488281 7.578125C18.488281 7.8125 18.296875 8 18.066406 8 17.832031 8 17.644531 7.8125 17.644531 7.578125 17.644531 7.347656 17.832031 7.15625 18.066406 7.15625 18.296875 7.15625 18.488281 7.347656 18.488281 7.578125zM18.488281 9.261719C18.488281 9.496094 18.296875 9.683594 18.066406 9.683594 17.832031 9.683594 17.644531 9.496094 17.644531 9.261719 17.644531 9.03125 17.832031 8.839844 18.066406 8.839844 18.296875 8.839844 18.488281 9.03125 18.488281 9.261719zM18.488281 10.945312C18.488281 11.179688 18.296875 11.367188 18.066406 11.367188 17.832031 11.367188 17.644531 11.179688 17.644531 10.945312 17.644531 10.714844 17.832031 10.527344 18.066406 10.527344 18.296875 10.527344 18.488281 10.714844 18.488281 10.945312zM18.488281 12.632812C18.488281 12.863281 18.296875 13.050781 18.066406 13.050781 17.832031 13.050781 17.644531 12.863281 17.644531 12.632812 17.644531 12.398438 17.832031 12.210938 18.066406 12.210938 18.296875 12.210938 18.488281 12.398438 18.488281 12.632812zM16.800781 12.632812C16.800781 12.863281 16.613281 13.050781 16.382812 13.050781 16.148438 13.050781 15.960938 12.863281 15.960938 12.632812 15.960938 12.398438 16.148438 12.210938 16.382812 12.210938 16.613281 12.210938 16.800781 12.398438 16.800781 12.632812zM15.117188 12.632812C15.117188 12.863281 14.929688 13.050781 14.695312 13.050781 14.464844 13.050781 14.277344 12.863281 14.277344 12.632812 14.277344 12.398438 14.464844 12.210938 14.695312 12.210938 14.929688 12.210938 15.117188 12.398438 15.117188 12.632812zM20.171875 12.632812C20.171875 12.863281 19.984375 13.050781 19.75 13.050781 19.515625 13.050781 19.328125 12.863281 19.328125 12.632812 19.328125 12.398438 19.515625 12.210938 19.75 12.210938 19.984375 12.210938 20.171875 12.398438 20.171875 12.632812zM21.855469 12.632812C21.855469 12.863281 21.667969 13.050781 21.433594 13.050781 21.203125 13.050781 21.011719 12.863281 21.011719 12.632812 21.011719 12.398438 21.203125 12.210938 21.433594 12.210938 21.667969 12.210938 21.855469 12.398438 21.855469 12.632812zM22.695312 11.789062C22.695312 12.023438 22.507812 12.210938 22.277344 12.210938 22.042969 12.210938 21.855469 12.023438 21.855469 11.789062 21.855469 11.554688 22.042969 11.367188 22.277344 11.367188 22.507812 11.367188 22.695312 11.554688 22.695312 11.789062zM21.011719 13.472656C21.011719 13.707031 20.824219 13.894531 20.59375 13.894531 20.359375 13.894531 20.171875 13.707031 20.171875 13.472656 20.171875 13.242188 20.359375 13.050781 20.59375 13.050781 20.824219 13.050781 21.011719 13.242188 21.011719 13.472656zM22.695312 13.472656C22.695312 13.707031 22.507812 13.894531 22.277344 13.894531 22.042969 13.894531 21.855469 13.707031 21.855469 13.472656 21.855469 13.242188 22.042969 13.050781 22.277344 13.050781 22.507812 13.050781 22.695312 13.242188 22.695312 13.472656zM21.855469 14.316406C21.855469 14.546875 21.667969 14.738281 21.433594 14.738281 21.203125 14.738281 21.011719 14.546875 21.011719 14.316406 21.011719 14.082031 21.203125 13.894531 21.433594 13.894531 21.667969 13.894531 21.855469 14.082031 21.855469 14.316406zM21.011719 16.839844C21.011719 17.074219 20.824219 17.261719 20.59375 17.261719 20.359375 17.261719 20.171875 17.074219 20.171875 16.839844 20.171875 16.609375 20.359375 16.421875 20.59375 16.421875 20.824219 16.421875 21.011719 16.609375 21.011719 16.839844zM21.855469 17.683594C21.855469 17.917969 21.667969 18.105469 21.433594 18.105469 21.203125 18.105469 21.011719 17.917969 21.011719 17.683594 21.011719 17.453125 21.203125 17.261719 21.433594 17.261719 21.667969 17.261719 21.855469 17.453125 21.855469 17.683594zM21.855469 16C21.855469 16.230469 21.667969 16.421875 21.433594 16.421875 21.203125 16.421875 21.011719 16.230469 21.011719 16 21.011719 15.765625 21.203125 15.578125 21.433594 15.578125 21.667969 15.578125 21.855469 15.765625 21.855469 16zM22.695312 16.839844C22.695312 17.074219 22.507812 17.261719 22.277344 17.261719 22.042969 17.261719 21.855469 17.074219 21.855469 16.839844 21.855469 16.609375 22.042969 16.421875 22.277344 16.421875 22.507812 16.421875 22.695312 16.609375 22.695312 16.839844zM22.695312 15.15625C22.695312 15.390625 22.507812 15.578125 22.277344 15.578125 22.042969 15.578125 21.855469 15.390625 21.855469 15.15625 21.855469 14.925781 22.042969 14.738281 22.277344 14.738281 22.507812 14.738281 22.695312 14.925781 22.695312 15.15625zM22.695312 15.15625"/>
    <path d="M 21.640625 1.683594 L 19.75 1.683594 C 19.746094 1.632812 19.734375 1.589844 19.730469 1.539062 C 19.722656 1.488281 19.71875 1.433594 19.710938 1.382812 C 19.695312 1.324219 19.679688 1.269531 19.660156 1.214844 C 19.644531 1.164062 19.632812 1.117188 19.613281 1.070312 C 19.59375 1.015625 19.5625 0.964844 19.535156 0.914062 C 19.515625 0.871094 19.496094 0.824219 19.46875 0.785156 C 19.4375 0.734375 19.398438 0.691406 19.363281 0.644531 C 19.332031 0.609375 19.308594 0.570312 19.277344 0.535156 C 19.234375 0.492188 19.1875 0.453125 19.144531 0.414062 C 19.109375 0.382812 19.078125 0.351562 19.042969 0.324219 C 18.992188 0.289062 18.9375 0.257812 18.886719 0.226562 C 18.847656 0.207031 18.8125 0.179688 18.773438 0.160156 C 18.714844 0.132812 18.648438 0.113281 18.582031 0.0898438 C 18.546875 0.078125 18.511719 0.0625 18.476562 0.0507812 C 18.371094 0.0234375 18.265625 0.0078125 18.15625 0.00390625 C 17.6875 -0.0195312 17.246094 0.140625 16.90625 0.460938 C 16.574219 0.777344 16.382812 1.222656 16.382812 1.683594 L 14.914062 1.683594 C 13.867188 1.683594 13.011719 2.535156 13.011719 3.582031 L 13.011719 13.609375 C 12.386719 15.339844 11.859375 16.773438 11.070312 17.78125 C 11.058594 17.789062 11.042969 17.796875 11.03125 17.808594 C 11.003906 17.835938 10.988281 17.867188 10.96875 17.898438 C 10.191406 18.835938 9.15625 19.367188 7.539062 19.367188 C 6.304688 19.367188 3.347656 19.109375 2.550781 18.753906 C 2.347656 18.664062 2.117188 18.683594 1.933594 18.804688 C 1.753906 18.921875 1.644531 19.121094 1.644531 19.339844 L 1.644531 20.894531 L 1.015625 20.6875 C 0.792969 20.613281 0.554688 20.734375 0.480469 20.953125 C 0.410156 21.175781 0.527344 21.414062 0.75 21.484375 L 2.785156 22.164062 L 7.414062 23.730469 C 8.015625 23.910156 8.675781 24 9.375 24 C 12.390625 24 14.277344 23.007812 15.035156 22.078125 C 15.351562 21.695312 15.832031 21.472656 16.355469 21.472656 L 16.800781 21.472656 L 16.800781 24 L 21.128906 24 C 21.738281 24 22.289062 23.613281 22.5 23.042969 L 23.066406 21.484375 C 23.136719 21.328125 23.132812 21.148438 23.0625 20.992188 C 23.355469 20.695312 23.539062 20.289062 23.539062 19.839844 L 23.539062 3.582031 C 23.539062 2.535156 22.6875 1.683594 21.640625 1.683594 Z M 19.75 4.632812 L 22.695312 4.632812 L 22.695312 5.472656 L 19.75 5.472656 Z M 16.382812 5.472656 L 13.855469 5.472656 L 13.855469 4.632812 L 16.382812 4.632812 Z M 13.855469 3.582031 C 13.855469 3 14.328125 2.527344 14.914062 2.527344 L 16.382812 2.527344 L 16.382812 3.789062 L 13.855469 3.789062 Z M 16.382812 6.316406 L 16.382812 10.78125 C 16.382812 11.023438 16.195312 11.121094 16.136719 11.144531 C 16.078125 11.164062 15.878906 11.230469 15.710938 11.054688 L 13.855469 9.15625 L 13.855469 6.316406 Z M 14.386719 21.542969 C 13.777344 22.289062 12.101562 23.15625 9.375 23.15625 C 8.757812 23.15625 8.179688 23.078125 7.667969 22.925781 L 3.050781 21.363281 L 3.035156 21.355469 L 2.488281 21.171875 L 2.488281 19.628906 C 3.777344 20.035156 6.695312 20.210938 7.539062 20.210938 C 9.300781 20.210938 10.476562 19.65625 11.359375 18.730469 L 11.875 19.246094 C 11.957031 19.328125 12.0625 19.367188 12.171875 19.367188 C 12.277344 19.367188 12.386719 19.328125 12.46875 19.246094 C 12.632812 19.082031 12.632812 18.8125 12.46875 18.648438 L 11.894531 18.074219 C 12.019531 17.898438 12.140625 17.714844 12.253906 17.519531 L 13.136719 18.402344 C 13.21875 18.484375 13.328125 18.527344 13.433594 18.527344 C 13.542969 18.527344 13.648438 18.484375 13.730469 18.402344 C 13.894531 18.238281 13.894531 17.972656 13.730469 17.808594 L 12.664062 16.742188 C 12.761719 16.539062 12.859375 16.328125 12.949219 16.113281 L 13.558594 16.71875 C 13.640625 16.800781 13.746094 16.84375 13.855469 16.84375 C 13.964844 16.84375 14.070312 16.800781 14.152344 16.71875 C 14.316406 16.554688 14.316406 16.289062 14.152344 16.125 L 13.3125 15.28125 C 13.304688 15.277344 13.300781 15.273438 13.292969 15.269531 C 13.472656 14.804688 13.648438 14.324219 13.828125 13.824219 L 13.855469 13.753906 L 13.855469 12.210938 C 14.085938 12.210938 14.277344 12.023438 14.277344 11.789062 C 14.277344 11.558594 14.085938 11.367188 13.855469 11.367188 L 13.855469 10.363281 L 14.300781 10.820312 C 14.289062 10.859375 14.277344 10.902344 14.277344 10.949219 C 14.277344 11.179688 14.464844 11.367188 14.695312 11.367188 C 14.738281 11.367188 14.777344 11.355469 14.816406 11.34375 L 15.105469 11.644531 C 15.117188 11.652344 15.128906 11.664062 15.140625 11.671875 C 15.132812 11.710938 15.117188 11.75 15.117188 11.789062 C 15.117188 12.023438 15.308594 12.210938 15.539062 12.210938 C 15.691406 12.210938 15.816406 12.128906 15.890625 12.007812 C 16.078125 12.023438 16.273438 11.996094 16.457031 11.921875 C 16.59375 11.867188 16.714844 11.785156 16.824219 11.6875 C 16.8125 11.71875 16.800781 11.753906 16.800781 11.789062 C 16.800781 12.023438 16.992188 12.210938 17.222656 12.210938 C 17.457031 12.210938 17.644531 12.023438 17.644531 11.789062 C 17.644531 11.558594 17.457031 11.367188 17.222656 11.367188 C 17.160156 11.367188 17.101562 11.382812 17.050781 11.410156 C 17.160156 11.222656 17.222656 11.007812 17.222656 10.78125 L 17.222656 10.527344 C 17.457031 10.527344 17.644531 10.335938 17.644531 10.105469 C 17.644531 9.871094 17.457031 9.683594 17.222656 9.683594 L 17.222656 8.84375 C 17.457031 8.84375 17.644531 8.652344 17.644531 8.421875 C 17.644531 8.1875 17.457031 8 17.222656 8 L 17.222656 7.15625 C 17.457031 7.15625 17.644531 6.96875 17.644531 6.738281 C 17.644531 6.503906 17.457031 6.316406 17.222656 6.316406 L 17.222656 5.472656 C 17.457031 5.472656 17.644531 5.285156 17.644531 5.050781 C 17.644531 4.820312 17.457031 4.632812 17.222656 4.632812 L 17.222656 3.789062 C 17.457031 3.789062 17.644531 3.601562 17.644531 3.367188 C 17.644531 3.136719 17.457031 2.949219 17.222656 2.949219 L 17.222656 2.105469 C 17.457031 2.105469 17.644531 1.917969 17.644531 1.683594 C 17.644531 1.488281 17.507812 1.332031 17.328125 1.285156 C 17.371094 1.207031 17.421875 1.136719 17.484375 1.074219 C 17.539062 1.019531 17.601562 0.980469 17.664062 0.945312 C 17.714844 1.125 17.871094 1.261719 18.066406 1.261719 C 18.257812 1.261719 18.414062 1.132812 18.464844 0.957031 C 18.597656 1.035156 18.707031 1.148438 18.785156 1.289062 C 18.613281 1.339844 18.488281 1.496094 18.488281 1.683594 C 18.488281 1.917969 18.675781 2.105469 18.90625 2.105469 L 18.90625 2.949219 C 18.675781 2.949219 18.488281 3.136719 18.488281 3.367188 C 18.488281 3.601562 18.675781 3.789062 18.90625 3.789062 L 18.90625 4.632812 C 18.675781 4.632812 18.488281 4.820312 18.488281 5.050781 C 18.488281 5.285156 18.675781 5.472656 18.90625 5.472656 L 18.90625 6.316406 C 18.675781 6.316406 18.488281 6.503906 18.488281 6.738281 C 18.488281 6.96875 18.675781 7.15625 18.90625 7.15625 L 18.90625 8 C 18.675781 8 18.488281 8.1875 18.488281 8.421875 C 18.488281 8.652344 18.675781 8.84375 18.90625 8.84375 L 18.90625 9.683594 C 18.675781 9.683594 18.488281 9.871094 18.488281 10.105469 C 18.488281 10.335938 18.675781 10.527344 18.90625 10.527344 L 18.90625 10.96875 C 18.90625 11.113281 18.933594 11.253906 18.980469 11.382812 C 18.957031 11.378906 18.933594 11.367188 18.90625 11.367188 C 18.675781 11.367188 18.488281 11.558594 18.488281 11.789062 C 18.488281 12.023438 18.675781 12.210938 18.90625 12.210938 C 19.105469 12.210938 19.265625 12.070312 19.308594 11.882812 C 19.394531 11.960938 19.492188 12.027344 19.601562 12.078125 C 19.773438 12.164062 19.960938 12.203125 20.144531 12.203125 C 20.234375 12.203125 20.328125 12.191406 20.417969 12.167969 C 20.472656 12.195312 20.53125 12.210938 20.59375 12.210938 C 20.796875 12.210938 20.960938 12.0625 21 11.867188 L 22.699219 10.542969 L 22.699219 19.839844 C 22.699219 20.273438 22.34375 20.632812 21.90625 20.632812 L 16.355469 20.632812 C 15.578125 20.632812 14.859375 20.964844 14.386719 21.542969 Z M 21.707031 22.753906 C 21.621094 22.996094 21.386719 23.15625 21.128906 23.15625 L 17.644531 23.15625 L 17.644531 21.472656 L 22.175781 21.472656 Z M 22.695312 9.476562 L 20.382812 11.277344 C 20.203125 11.417969 20.019531 11.347656 19.96875 11.320312 C 19.917969 11.296875 19.75 11.195312 19.75 10.96875 L 19.75 6.316406 L 22.695312 6.316406 Z M 19.75 3.789062 L 19.75 2.527344 L 21.640625 2.527344 C 22.222656 2.527344 22.695312 3 22.695312 3.582031 L 22.695312 3.789062 Z M 19.75 3.789062"/>
</svg>

<svg xmlns="http://www.w3.org/2000/svg" width="32" height="32" viewBox="0 0 24 24">
    <path d="M22.277 19.469v-.52a.423.423 0 0 0-.843 0v.418h-5.079a3.836 3.836 0 0 0-2.953 1.383c-.328.395-1.593 1.145-4.027 1.145-.488 0-.938-.06-1.34-.18a.425.425 0 0 0-.523.285.42.42 0 0 0 .285.523c.48.141 1.012.215 1.578.215 2.563 0 4.117-.781 4.676-1.449a2.994 2.994 0 0 1 2.304-1.078h5.176c.41 0 .746-.332.746-.742zm0 0M18.488 2.527a.422.422 0 0 1-.843 0 .423.423 0 0 1 .844 0zm0 0M18.488 4.21c0 .231-.191.423-.422.423a.423.423 0 1 1 .422-.422zm0 0M18.488 5.895a.423.423 0 1 1-.842-.001.423.423 0 0 1 .842 0zm0 0M18.488 7.578a.423.423 0 1 1-.845-.001.423.423 0 0 1 .845.001zm0 0M18.488 9.262a.423.423 0 1 1-.845-.002.423.423 0 0 1 .845.002zm0 0M18.488 10.945a.423.423 0 0 1-.843 0 .422.422 0 1 1 .844 0zm0 0M18.488 12.633a.422.422 0 0 1-.843 0 .423.423 0 0 1 .844 0zm0 0M16.8 12.633a.42.42 0 1 1-.418-.422.42.42 0 0 1 .419.422zm0 0M15.117 12.633a.42.42 0 1 1-.838-.003.42.42 0 0 1 .838.003zm0 0M20.172 12.633a.42.42 0 0 1-.422.418.42.42 0 1 1 0-.84.42.42 0 0 1 .422.422zm0 0M21.855 12.633a.422.422 0 1 1-.844 0 .423.423 0 0 1 .844 0zm0 0M22.695 11.79a.42.42 0 1 1-.84 0 .42.42 0 1 1 .84 0zm0 0M21.012 13.473a.42.42 0 1 1-.84 0c0-.23.187-.422.422-.422.23 0 .418.191.418.422zm0 0M22.695 13.473a.42.42 0 1 1-.84 0c0-.23.188-.422.422-.422.23 0 .418.191.418.422zm0 0M21.855 14.316a.423.423 0 1 1-.845-.001.423.423 0 0 1 .845.001zm0 0M21.012 16.84a.42.42 0 1 1-.839.005.42.42 0 0 1 .839-.005zm0 0M21.855 17.684a.423.423 0 1 1-.842-.001.423.423 0 0 1 .842 0zm0 0M21.855 16a.423.423 0 1 1-.845-.001.423.423 0 0 1 .845.001zm0 0M22.695 16.84a.42.42 0 1 1-.838.005.42.42 0 0 1 .838-.005zm0 0M22.695 15.156a.42.42 0 1 1-.838.005.42.42 0 0 1 .838-.005zm0 0"/>
    <path d="M21.64 1.684h-1.89c-.004-.051-.016-.094-.02-.145-.007-.05-.011-.105-.02-.156a2.109 2.109 0 0 0-.05-.168c-.015-.05-.027-.098-.047-.145-.02-.054-.05-.105-.078-.156-.02-.043-.039-.09-.066-.129-.032-.05-.07-.094-.106-.14-.031-.036-.054-.075-.086-.11-.043-.043-.09-.082-.132-.12-.036-.032-.067-.063-.102-.09-.05-.036-.105-.067-.156-.098-.04-.02-.075-.047-.114-.067-.058-.027-.125-.047-.191-.07-.035-.012-.07-.027-.105-.04a1.475 1.475 0 0 0-.32-.046 1.677 1.677 0 0 0-1.774 1.68h-1.469a1.904 1.904 0 0 0-1.902 1.898v10.027c-.625 1.73-1.153 3.164-1.942 4.172-.011.008-.027.016-.039.028-.027.027-.043.058-.062.09-.778.937-1.813 1.468-3.43 1.468-1.234 0-4.191-.258-4.988-.613a.643.643 0 0 0-.906.586v1.555l-.63-.207a.42.42 0 0 0-.266.797l2.036.68 4.63 1.565c.6.18 1.26.27 1.96.27 3.016 0 4.902-.992 5.66-1.922a1.7 1.7 0 0 1 1.32-.605h.446V24h4.328c.61 0 1.16-.387 1.371-.957l.566-1.559a.6.6 0 0 0-.003-.492c.292-.297.476-.703.476-1.152V3.582a1.9 1.9 0 0 0-1.898-1.898zm-1.89 2.949h2.945v.84H19.75zm-3.367.84h-2.528v-.84h2.528zm-2.528-1.891c0-.582.473-1.055 1.06-1.055h1.468V3.79h-2.528zm2.528 2.734v4.465c0 .242-.188.34-.246.364-.059.02-.258.085-.426-.09l-1.856-1.899v-2.84zm-1.996 15.227c-.61.746-2.285 1.613-5.012 1.613a6.014 6.014 0 0 1-1.707-.23l-4.617-1.563-.016-.008-.547-.183v-1.543c1.29.406 4.207.582 5.051.582 1.762 0 2.938-.555 3.82-1.48l.516.515a.413.413 0 0 0 .297.121.42.42 0 0 0 .297-.719l-.574-.574c.125-.176.246-.36.359-.554l.883.882a.417.417 0 0 0 .594 0 .42.42 0 0 0 0-.593l-1.067-1.067c.098-.203.195-.414.285-.629l.61.606a.417.417 0 0 0 .593 0 .42.42 0 0 0 0-.594l-.84-.844c-.007-.004-.011-.008-.019-.011.18-.465.355-.946.535-1.446l.027-.07V12.21a.423.423 0 0 0 0-.844v-1.004l.446.457a.445.445 0 0 0-.024.13c0 .23.188.417.418.417a.416.416 0 0 0 .121-.023l.29.3c.011.008.023.02.035.028-.008.039-.024.078-.024.117 0 .234.192.422.422.422a.409.409 0 0 0 .352-.203 1.24 1.24 0 0 0 .566-.086c.137-.055.258-.137.367-.235a.297.297 0 0 0-.023.102.423.423 0 1 0 .422-.422.362.362 0 0 0-.172.043c.11-.187.172-.402.172-.629v-.254a.423.423 0 0 0 0-.843v-.84a.423.423 0 0 0 0-.844v-.844a.42.42 0 1 0 0-.84v-.843a.42.42 0 1 0 0-.84v-.844a.42.42 0 1 0 0-.84v-.844a.42.42 0 0 0 .422-.421.414.414 0 0 0-.317-.399.924.924 0 0 1 .156-.21.802.802 0 0 1 .18-.13c.05.18.207.317.402.317a.415.415 0 0 0 .399-.305.873.873 0 0 1 .32.332.411.411 0 0 0-.297.395.42.42 0 0 0 .418.421v.844a.42.42 0 1 0 0 .84v.844a.42.42 0 1 0 0 .84v.843a.42.42 0 0 0 0 .84V8a.422.422 0 1 0 0 .844v.84a.422.422 0 1 0 0 .844v.44c0 .145.028.286.074.415-.023-.004-.046-.016-.074-.016a.422.422 0 0 0 0 .844c.2 0 .36-.14.403-.328.086.078.183.144.293.195a1.214 1.214 0 0 0 .816.09.39.39 0 0 0 .176.043.418.418 0 0 0 .406-.344l1.7-1.324v9.297a.796.796 0 0 1-.794.793h-5.55c-.778 0-1.497.332-1.97.91zm7.32 1.21a.613.613 0 0 1-.578.403h-3.484v-1.683h4.53zm.988-13.276l-2.312 1.8a.383.383 0 0 1-.414.043.386.386 0 0 1-.219-.351V6.316h2.945zM19.75 3.789V2.527h1.89c.583 0 1.055.473 1.055 1.055v.207zm0 0"/>
</svg>
